packages/foundations/assets/icons/functional/images/security/fingerprint_24.svg

<svg width="24" height="24" viewBox="0 0 24 24" fill="none" xmlns="http://www.w3.org/2000/svg">
<g clip-path="url(#clip0_187_228)">
<path fill-rule="evenodd" clip-rule="evenodd" d="M17.5849 7.63224C19.8549 9.19552 21.3673 11.6639 21.7361 14.4023C21.8457 15.221 21.6304 16.0312 21.1296 16.6871C20.6296 17.3429 19.9028 17.7642 19.0849 17.873C18.9576 17.8908 18.8125 17.9016 18.6682 17.9016C17.1335 17.9016 15.8217 16.7511 15.6157 15.2249C15.4213 13.7735 14.3827 12.586 12.9699 12.2002C12.0378 11.9471 11.0485 12.0729 10.2121 12.5505C9.36876 13.0312 8.76459 13.8121 8.50841 14.748C8.12569 16.1477 8.66736 18.3754 10.7391 20.1979C11.1658 20.5729 11.2075 21.2226 10.8325 21.6501C10.6288 21.8816 10.3448 21.9988 10.0593 21.9996C9.81938 22.0004 9.57709 21.9163 9.38187 21.7434C6.45593 19.1701 6.0138 16.0752 6.5246 14.2064C6.9243 12.7395 7.8726 11.5165 9.19283 10.7634C10.4976 10.0181 12.057 9.81666 13.5123 10.2156C15.7253 10.8198 17.3518 12.6786 17.6566 14.951C17.7307 15.5057 18.2816 15.9078 18.8048 15.8344C19.0864 15.7974 19.3279 15.6577 19.4946 15.4386C19.6613 15.2195 19.733 14.9494 19.6968 14.677C19.4059 12.5119 18.2106 10.562 16.4182 9.32746C15.9506 9.00493 15.8318 8.36449 16.1543 7.89613C16.4768 7.42853 17.1173 7.31202 17.5849 7.63224ZM13.0254 15.1547C13.4143 17.0652 14.787 18.674 16.608 19.3522C17.1404 19.5505 17.4112 20.1423 17.2129 20.6755C17.0586 21.0891 16.6659 21.3453 16.2484 21.3453C16.1281 21.3453 16.0069 21.3245 15.8881 21.2797C13.4074 20.3553 11.5378 18.1655 11.0084 15.5644C10.895 15.0073 11.2546 14.4641 11.8117 14.3514C12.368 14.2388 12.912 14.5976 13.0254 15.1547ZM13.2461 5.97791C13.8094 6.04966 14.2083 6.56587 14.1358 7.12915C14.0632 7.69165 13.5509 8.09829 12.9845 8.01804C11.3178 7.80739 9.62879 8.14613 8.17045 8.97715C6.37337 10.0042 5.08324 11.6685 4.53771 13.6655C4.41348 14.1215 4.32937 14.5906 4.28925 15.0605C4.24295 15.596 3.79388 16.0019 3.26532 16.0019C3.23677 16.0011 3.20668 15.9996 3.17659 15.9965C2.611 15.9486 2.19124 15.4502 2.23985 14.8838C2.29078 14.2912 2.39649 13.6994 2.55313 13.123C3.24372 10.5968 4.87644 8.48949 7.15038 7.1901C8.9953 6.13917 11.1373 5.70476 13.2461 5.97791ZM5.85253 5.71401C5.49296 5.71401 5.14419 5.52497 4.95515 5.18932C4.67583 4.69395 4.85098 4.06663 5.34635 3.78808C8.51613 2.00334 12.3248 1.52726 15.8441 2.48483C16.9552 2.78884 18.0239 3.22712 19.0193 3.78731C19.5147 4.06586 19.6898 4.69395 19.4113 5.18855C19.1319 5.68238 18.5054 5.85831 18.01 5.58053C17.1612 5.10213 16.2507 4.72867 15.3032 4.47018C12.3055 3.65613 9.06011 4.05814 6.35639 5.5813C6.19667 5.6708 6.02306 5.71401 5.85253 5.71401Z" fill="#1A1C1F"/>
</g>
<defs>
<clipPath id="clip0_187_228">
<rect width="24" height="24" fill="white"/>
</clipPath>
</defs>
</svg>

<svg xmlns="http://www.w3.org/2000/svg" width="24" height="24" fill="none"><g clip-path="url(#a)"><path fill="#1A1C1F" fill-rule="evenodd" d="M17.585 7.632a9.82 9.82 0 0 1 4.151 6.77 3.07 3.07 0 0 1-.606 2.285 3.06 3.06 0 0 1-2.045 1.186 3.095 3.095 0 0 1-3.47-2.648 3.633 3.633 0 0 0-7.107-.477c-.382 1.4.16 3.627 2.231 5.45a1.03 1.03 0 0 1-1.357 1.545c-2.926-2.573-3.368-5.668-2.857-7.537a5.65 5.65 0 0 1 2.668-3.443 5.7 5.7 0 0 1 4.32-.547 5.68 5.68 0 0 1 4.144 4.735c.074.555.625.957 1.148.883a1.026 1.026 0 0 0 .892-1.157 7.76 7.76 0 0 0-3.279-5.35 1.03 1.03 0 0 1 1.167-1.695m-4.56 7.523a5.73 5.73 0 0 0 3.583 4.197 1.029 1.029 0 1 1-.72 1.928 7.8 7.8 0 0 1-4.88-5.716 1.028 1.028 0 1 1 2.017-.41m.221-9.177c.563.072.962.588.89 1.151-.073.563-.585.97-1.151.889a7.76 7.76 0 0 0-4.815.96 7.7 7.7 0 0 0-3.632 4.687 8 8 0 0 0-.249 1.396 1.03 1.03 0 0 1-1.112.935 1.03 1.03 0 0 1-.937-1.112c.05-.593.156-1.185.313-1.761A9.75 9.75 0 0 1 7.15 7.19a9.8 9.8 0 0 1 6.096-1.212m-7.393-.264a1.029 1.029 0 0 1-.507-1.926 14 14 0 0 1 10.498-1.303c1.111.304 2.18.742 3.175 1.302a1.029 1.029 0 0 1-1.009 1.794 12 12 0 0 0-2.707-1.11 11.94 11.94 0 0 0-8.947 1.11 1.03 1.03 0 0 1-.503.133" clip-rule="evenodd"/></g><defs><clipPath id="a"><path fill="#fff" d="M0 0h24v24H0z"/></clipPath></defs></svg>
